X: 155
T:Dirty Old Town
M:4/4
R:song
C:Ewan McColl
L:1/8
Z:added by Alf warnock alf0@rogers.com - www.alfwarnock.info/alfs
K:Bb
"F7" F2 G2B2|"Bb"d8-|d2cB d2B2|F8-|F4 d2f2|\
"Eb"g8-|g2fd c2B2|"Bb"d8-|d4 "Eb"g2f2|
"Bb"d8-|d2cB d2B2|F8-|F4 GBd2|\
"Cm"c8-|c4 cBGF|"Gm"G8-|G2 :|

